weapons/slash.svg

<?xml version="1.0" encoding="UTF-8" standalone="no"?>
<!-- Created with Inkscape (http://www.inkscape.org/) -->

<svg
   xmlns:dc="http://purl.org/dc/elements/1.1/"
   xmlns:cc="http://creativecommons.org/ns#"
   xmlns:rdf="http://www.w3.org/1999/02/22-rdf-syntax-ns#"
   xmlns:svg="http://www.w3.org/2000/svg"
   xmlns="http://www.w3.org/2000/svg"
   xmlns:sodipodi="http://sodipodi.sourceforge.net/DTD/sodipodi-0.dtd"
   xmlns:inkscape="http://www.inkscape.org/namespaces/inkscape"
   width="32"
   height="32"
   viewBox="0 0 8.4666665 8.4666669"
   version="1.1"
   id="svg8"
   inkscape:version="0.92.4 (5da689c313, 2019-01-14)"
   sodipodi:docname="MHST2-Cutting Effective.svg">
  <defs
     id="defs2" />
  <sodipodi:namedview
     id="base"
     pagecolor="#ffffff"
     bordercolor="#666666"
     borderopacity="1.0"
     inkscape:pageopacity="0.0"
     inkscape:pageshadow="2"
     inkscape:zoom="7.9195959"
     inkscape:cx="9.9247677"
     inkscape:cy="7.3135911"
     inkscape:document-units="px"
     inkscape:current-layer="layer1"
     showgrid="false"
     units="px"
     showguides="true"
     inkscape:guide-bbox="true"
     inkscape:window-width="1304"
     inkscape:window-height="745"
     inkscape:window-x="-8"
     inkscape:window-y="-8"
     inkscape:window-maximized="1" />
  <metadata
     id="metadata5">
    <rdf:RDF>
      <cc:Work
         rdf:about="">
        <dc:format>image/svg+xml</dc:format>
        <dc:type
           rdf:resource="http://purl.org/dc/dcmitype/StillImage" />
        <dc:title></dc:title>
      </cc:Work>
    </rdf:RDF>
  </metadata>
  <g
     inkscape:label="Layer 1"
     inkscape:groupmode="layer"
     id="layer1"
     transform="translate(0,-288.53332)">
    <rect
       style="opacity:1;fill:#1e1103;fill-opacity:1;stroke:none;stroke-width:1.05833328;stroke-linecap:round;stroke-linejoin:round;stroke-miterlimit:4;stroke-dasharray:none;stroke-dashoffset:0;stroke-opacity:1;paint-order:normal"
       id="rect826"
       width="5.7317119"
       height="5.7317119"
       x="-206.88972"
       y="207.14484"
       transform="rotate(-45)" />
    <path
       style="fill:#ffffff;stroke:none;stroke-width:0.99999994;stroke-linecap:butt;stroke-linejoin:round;stroke-miterlimit:4;stroke-dasharray:none;stroke-opacity:1"
       d="M 20.216797 6.7050781 L 11.783203 11.994141 L 11.783203 19.046875 L 20.216797 19.046875 L 20.216797 6.7050781 z M 10.634766 20.962891 L 10.634766 22.726562 L 13.800781 22.726562 L 13.800781 25.294922 L 18.130859 25.294922 L 18.130859 22.726562 L 21.365234 22.726562 L 21.365234 20.962891 L 10.634766 20.962891 z "
       transform="matrix(0.26458333,0,0,0.26458333,0,288.53332)"
       id="path828" />
  </g>
</svg>

<svg xmlns="http://www.w3.org/2000/svg" viewBox="0 0 8.467 8.467"><path style="opacity:1;fill:#1e1103;fill-opacity:1;stroke:none;stroke-width:1.05833328;stroke-linecap:round;stroke-linejoin:round;stroke-miterlimit:4;stroke-dasharray:none;stroke-dashoffset:0;stroke-opacity:1;paint-order:normal" transform="rotate(-45 -348.29 -144.267)" d="M-206.89 207.145h5.732v5.732h-5.732z"/><path style="fill:#fff;stroke:none;stroke-width:.99999994;stroke-linecap:butt;stroke-linejoin:round;stroke-miterlimit:4;stroke-dasharray:none;stroke-opacity:1" d="m20.217 6.705-8.434 5.29v7.052h8.434V6.705zm-9.582 14.258v1.764H13.8v2.568h4.33v-2.568h3.234v-1.764h-10.73z" transform="scale(.26458)"/></svg>
